X:1
T:Wanderin'
M:4/4
L:1/8
K:D
 A| d3/2 d/2 d3/2 d/2 d3/2 d/2 d3/2 d/2| c3/2 c/2 c3/2 c/2 c3 A| B3/2 B/2 B3/2 B/2 B3/2 F/2 F3/2 F/2|\
 G3/2 G/2 F3/2 F/2 E2| DE| F2 A4- AF| FF FF F2 E2| G6 F2| D6||

